X: 1
T: Dark Corners
M: 6/8
L: 1/8
R: jig
K: Dmin
|:B | AFD DED | AFD DcB | AFD DEF | ECA, EFG | 
AFD DED | AFA d2 e | ged ^cdB | cAA A2 :|
|:G | F3 cAF | FEF cDE | F3 cFA |GEC (3EFG E2 |F3 cAF |
[1 FAc f2 e | dcA AGE | FDD D2 E :|
[2 FAc f2 g | afa ge^c | d3 c2||
